src/cmd/lc_datafilterautofilter.svg

<svg viewBox="0 0 24 24" xmlns="http://www.w3.org/2000/svg"><path d="m6 4-1 1v1 .3046875l4.03125 5.6953125h1.224609l-4.255859-6.0117188v-.9882812h12v.9882812l-4.255859 6.0117188h1.224609l4.03125-5.6953125v-1.3046875l-1-1zm1 2 2 3v-2l2-1zm13 3-2 2 2 2zm-16 3v1h2v-1zm3 0v1h2v-1zm4 0v1h2v-1zm2 1v.048828.951172 4.019531l-2-1.484375v-2.535156-.951172-.048828h-.035156-1.2246096l.2597656.367188v3.632812.039062l3.990234 2.960938h.009766v-6.632812l.259766-.367188h-1.22461zm2-1v1h2v-1z" fill="#232629"/></svg>

<?xml version="1.0" encoding="UTF-8" standalone="no"?>
<svg
   xmlns:dc="http://purl.org/dc/elements/1.1/"
   xmlns:cc="http://creativecommons.org/ns#"
   xmlns:rdf="http://www.w3.org/1999/02/22-rdf-syntax-ns#"
   xmlns:svg="http://www.w3.org/2000/svg"
   xmlns="http://www.w3.org/2000/svg"
   xmlns:sodipodi="http://sodipodi.sourceforge.net/DTD/sodipodi-0.dtd"
   xmlns:inkscape="http://www.inkscape.org/namespaces/inkscape"
   viewBox="0 0 24 24"
   version="1.1"
   id="svg4"
   sodipodi:docname="lc_datafilterautofilter.svg"
   inkscape:export-filename="/home/jupiter007/Libreoffice yaru theme fullcolor/build/cmd/lc_datafilterautofilter.png"
   inkscape:export-xdpi="96"
   inkscape:export-ydpi="96"
   inkscape:version="0.92.5 (2060ec1f9f, 2020-04-08)">
  <metadata
     id="metadata10">
    <rdf:RDF>
      <cc:Work
         rdf:about="">
        <dc:format>image/svg+xml</dc:format>
        <dc:type
           rdf:resource="http://purl.org/dc/dcmitype/StillImage" />
      </cc:Work>
    </rdf:RDF>
  </metadata>
  <defs
     id="defs8" />
  <sodipodi:namedview
     pagecolor="#ffffff"
     bordercolor="#666666"
     borderopacity="1"
     objecttolerance="10"
     gridtolerance="10"
     guidetolerance="10"
     inkscape:pageopacity="0"
     inkscape:pageshadow="2"
     inkscape:window-width="1920"
     inkscape:window-height="1011"
     id="namedview6"
     showgrid="true"
     inkscape:zoom="27.812867"
     inkscape:cx="6.1292108"
     inkscape:cy="13.202359"
     inkscape:window-x="0"
     inkscape:window-y="32"
     inkscape:window-maximized="1"
     inkscape:current-layer="svg4">
    <inkscape:grid
       type="xygrid"
       id="grid817" />
  </sodipodi:namedview>
  <path
     sodipodi:nodetypes="cccccccccccccc"
     id="path825"
     d="M 6,4 5,5 v 1 0.3046875 l 5,7.0625005 V 17 17.039062 L 13.990234,20 H 14 V 13.367188 L 19,6.3046875 V 5 L 18,4 Z"
     style="fill:#000000;stroke:#000000;opacity:0.6;stroke-width:2;stroke-miterlimit:4;stroke-dasharray:none;stroke-linejoin:round"
     inkscape:connector-curvature="0" />
  <path
     inkscape:connector-curvature="0"
     style="fill:#ffffff"
     d="M 6,4 5,5 v 1 0.3046875 l 5,7.0625005 V 17 17.039062 L 13.990234,20 H 14 V 13.367188 L 19,6.3046875 V 5 L 18,4 Z"
     id="path2"
     sodipodi:nodetypes="cccccccccccccc" />
  <path
     inkscape:connector-curvature="0"
     style="opacity:0.6;fill:#000000"
     d="M 10.828125,5.0000002 23.999999,18.171875 21.171874,21 8,7.828125 Z"
     id="path840" />
  <path
     inkscape:connector-curvature="0"
     style="fill:#ffffff;fill-opacity:1"
     d="M 10.896485,6.4824221 9.482423,7.896485 12.580078,10.996094 13.996094,9.580078 Z"
     id="path838" />
  <rect
     style="opacity:1;fill:#fa9381;fill-opacity:1;stroke:none;stroke-width:1.00675654;stroke-linecap:round;stroke-linejoin:round;stroke-miterlimit:4;stroke-dasharray:none;stroke-opacity:1"
     id="rect819"
     width="11.149147"
     height="2"
     x="-28.820019"
     y="-3.1200275"
     ry="0"
     transform="matrix(-0.70710678,-0.70710678,-0.70710678,0.70710678,0,0)" />
</svg>
